X:8904
T:La dame du Poivre
R:Scottiche
C:trad
A:Languedoc
O:France
Z:S. Piron
M:2/4
L:1/8
Q:1/4=90
K:G
d/2e/2d/2c/2 BB|c/2d/2c/2B/2 AA|B/2c/2B/2A/2 GG|Bd A2:|
|:B/2G/2B/2G/2 AA|c/2A/2c/2A/2 BB/2d/2|d/2e/2f/2g/2 d/2f/2d/2c/2|BA BG
|B/2G/2B/2G/2 AA|c/2A/2c/2A/2 BB/2d/2|d/2e/2f/2g/2 d/2f/2d/2c/2|BA G2:||


